SVG_Azure_All/Cognitive Services Bot Channel.svg

<?xml version="1.0" encoding="UTF-8" standalone="no"?>
<!-- Generated by Microsoft Visio, SVG Export Cognitive Services Bot Channel.svg Page-1 -->

<svg
   xmlns:dc="http://purl.org/dc/elements/1.1/"
   xmlns:cc="http://creativecommons.org/ns#"
   xmlns:rdf="http://www.w3.org/1999/02/22-rdf-syntax-ns#"
   xmlns:svg="http://www.w3.org/2000/svg"
   xmlns="http://www.w3.org/2000/svg"
   xmlns:sodipodi="http://sodipodi.sourceforge.net/DTD/sodipodi-0.dtd"
   xmlns:inkscape="http://www.inkscape.org/namespaces/inkscape"
   width="0.80424875in"
   height="0.80442601in"
   viewBox="0 0 57.905836 57.918785"
   xml:space="preserve"
   class="st4"
   version="1.1"
   id="svg35"
   sodipodi:docname="Cognitive Services Bot Channel.svg"
   style="font-size:12px;overflow:visible;color-interpolation-filters:sRGB;fill:none;fill-rule:evenodd;stroke-linecap:square;stroke-miterlimit:3"
   inkscape:version="0.92.5 (2060ec1f9f, 2020-04-08)"><metadata
   id="metadata39"><rdf:RDF><cc:Work
       rdf:about=""><dc:format>image/svg+xml</dc:format><dc:type
         rdf:resource="http://purl.org/dc/dcmitype/StillImage" /></cc:Work></rdf:RDF></metadata><sodipodi:namedview
   pagecolor="#ffffff"
   bordercolor="#666666"
   borderopacity="1"
   objecttolerance="10"
   gridtolerance="10"
   guidetolerance="10"
   inkscape:pageopacity="0"
   inkscape:pageshadow="2"
   inkscape:window-width="640"
   inkscape:window-height="480"
   id="namedview37"
   showgrid="false"
   inkscape:zoom="1.4057017"
   inkscape:cx="38.603552"
   inkscape:cy="38.610834"
   inkscape:window-x="0"
   inkscape:window-y="0"
   inkscape:window-maximized="0"
   inkscape:current-layer="svg35" />
	<style
   type="text/css"
   id="style2">
	<![CDATA[
		.st1 {fill:#83b9f9;stroke:none;stroke-linecap:butt;stroke-width:34}
		.st2 {fill:url(#grad0-8);stroke:none;stroke-linecap:butt;stroke-width:34}
		.st3 {fill:#a67af4;stroke:none;stroke-linecap:butt;stroke-width:34}
		.st4 {fill:none;fill-rule:evenodd;font-size:12px;overflow:visible;stroke-linecap:square;stroke-miterlimit:3}
	]]>
	</style>

	<defs
   id="Patterns_And_Gradients">
		<linearGradient
   id="grad0-8"
   x1="-2.3355903"
   y1="92.657171"
   x2="33.237453"
   y2="92.657171"
   gradientTransform="scale(0.99836816,1.0016345)"
   gradientUnits="userSpaceOnUse">
			<stop
   offset="0"
   stop-color="#5ea0ef"
   stop-opacity="1"
   id="stop4" />
			<stop
   offset="1"
   stop-color="#0078d4"
   stop-opacity="1"
   id="stop6" />
		</linearGradient>
	</defs>
	<g
   id="g33"
   transform="translate(-34.003481,-33.997394)">
		<title
   id="title10">Page-1</title>
		<g
   id="group6617-1"
   transform="translate(35.2193,-35.2226)">
			<title
   id="title12">Cognitive Services Bot Channel</title>
			<g
   id="group6618-2">
				<title
   id="title14">Sheet.6618</title>
				<g
   id="shape6619-3"
   transform="translate(2.91474,-1.90653)">
					<title
   id="title16">Sheet.6619</title>
					<path
   d="M 13.72,87.54 6.03,76.06 8.28,74.54 15.97,86.02 Z m 2.5,27.46 -2.19,-1.61 -7.98,10.91 2.2,1.61 z M 8.67,98.84 0.06,98.64 0,101.38 l 8.61,0.2 z m 35.82,-22.75 -2.21,-1.58 -8.18,11.48 2.2,1.58 z m 0,48.21 -8.19,-11.2 -2.19,1.61 8.19,11.21 z m 6.05,-22.92 -0.06,-2.73 -8.71,0.2 0.07,2.73 z"
   class="st1"
   id="path18"
   inkscape:connector-curvature="0"
   style="fill:#83b9f9;stroke:none;stroke-width:34;stroke-linecap:butt" />
				</g>
				<g
   id="shape6620-5"
   transform="translate(12.4987,-12.3167)">
					<title
   id="title21">Sheet.6620</title>
					<path
   d="M 29.62,99.88 A 17.7909,17.8395 -180 0 0 4.73,96.4 L 4.55,96.54 A 17.769658,17.818158 -180 1 0 26.33,124.7 17.8392,17.8879 -180 0 0 29.62,99.88 Z M 0,109.47 a 15.5228,15.5652 0 0 1 1.72,-6.04 h 4.3 a 28.8548,28.9336 -180 0 0 -0.82,6.04 z m 8.41,-6.04 h 5.89 v 6.04 H 7.48 a 26.3808,26.4528 0 0 1 0.93,-6.04 z m 8.17,0 h 5.89 a 26.3808,26.4528 0 0 1 0.93,6.04 h -6.82 z m -2.28,8.33 v 6.05 H 8.41 a 26.4065,26.4786 0 0 1 -0.93,-6.05 z m 2.28,0 h 6.82 a 26.4065,26.4786 0 0 1 -0.92,6.05 h -5.9 z m 9.11,0 h 5.17 a 15.6193,15.662 0 0 1 -1.7,6.05 h -4.3 a 29.1315,29.211 -180 0 0 0.82,-6.05 z m 0,-2.29 a 29.0703,29.1497 -180 0 0 -0.83,-6.04 h 4.31 a 15.3748,15.4168 0 0 1 1.7,6.04 z m 2.01,-8.33 h -3.54 a 17.3084,17.3556 -180 0 0 -2.5,-4.74 15.362,15.4039 0 0 1 6.04,4.74 z m -6,0 h -5.12 v -5.81 a 9.24936,9.27462 0 0 1 5.12,5.81 z m -7.4,-5.81 v 5.81 H 9.19 A 9.25257,9.27785 0 0 1 14.3,95.33 Z M 5.94,98.35 6.1,98.24 A 15.555,15.5975 0 0 1 9.23,96.4 17.2923,17.3395 -180 0 0 6.72,101.14 H 3.18 a 15.5132,15.5556 0 0 1 2.76,-2.8 z M 0,111.76 h 5.2 a 28.9159,28.9949 -180 0 0 0.82,6.05 H 1.71 A 15.4424,15.4846 0 0 1 0,111.76 Z m 3.22,8.39 -0.03,-0.04 h 3.54 a 17.4017,17.4492 -180 0 0 2.51,4.74 15.3813,15.4233 0 0 1 -6.04,-4.72 z m 5.98,-0.04 h 5.1 v 5.81 a 9.27188,9.2972 0 0 1 -5.11,-5.83 z m 7.4,5.81 v -5.81 h 5.1 a 9.26544,9.29075 0 0 1 -5.12,5.8 z m 8.37,-3.03 a 15.4424,15.4846 0 0 1 -3.29,1.96 17.318,17.3653 -180 0 0 2.51,-4.75 h 3.54 a 15.3555,15.3975 0 0 1 -2.81,2.79 z"
   class="st2"
   id="path23"
   inkscape:connector-curvature="0"
   style="fill:url(#grad0-8);stroke:none;stroke-width:34;stroke-linecap:butt" />
				</g>
				<g
   id="shape6621-9">
					<title
   id="title26">Sheet.6621</title>
					<path
   d="m 56.69,98.3 a 4.16301,4.17439 0 1 1 -4.15,-4.18 4.16301,4.17439 0 0 1 4.15,4.18 z M 2.94,94.12 A 4.16301,4.17439 -180 1 0 7.11,98.3 4.16301,4.17439 -180 0 0 2.94,94.12 Z m 7.13,24.67 a 4.16301,4.17439 -180 1 0 4.16,4.17 4.16301,4.17439 -180 0 0 -4.16,-4.17 z m 35.62,0 a 4.16301,4.17439 -180 1 0 4.16,4.17 4.16301,4.17439 -180 0 0 -4.17,-4.17 z M 10.07,69.22 a 4.16301,4.17439 -180 1 0 4.16,4.17 4.1598,4.17116 -180 0 0 -4.16,-4.17 z m 35.92,0 a 4.16301,4.17439 -180 1 0 4.17,4.17 4.16301,4.17439 -180 0 0 -4.17,-4.17 z"
   class="st3"
   id="path28"
   inkscape:connector-curvature="0"
   style="fill:#a67af4;stroke:none;stroke-width:34;stroke-linecap:butt" />
				</g>
			</g>
		</g>
	</g>
</svg>

<?xml version="1.0" encoding="UTF-8" standalone="no"?>
<!DOCTYPE svg PUBLIC "-//W3C//DTD SVG 1.1//EN" "http://www.w3.org/Graphics/SVG/1.1/DTD/svg11.dtd">
<!-- Generated by Microsoft Visio, SVG Export Cognitive Services Bot Channel.svg Page-1 -->
<svg xmlns="http://www.w3.org/2000/svg" xmlns:xlink="http://www.w3.org/1999/xlink" xmlns:ev="http://www.w3.org/2001/xml-events"
		width="1.74878in" height="1.74883in" viewBox="0 0 125.912 125.916" xml:space="preserve" color-interpolation-filters="sRGB"
		class="st4">
	<style type="text/css">
	<![CDATA[
		.st1 {fill:#83b9f9;stroke:none;stroke-linecap:butt;stroke-width:34}
		.st2 {fill:url(#grad0-8);stroke:none;stroke-linecap:butt;stroke-width:34}
		.st3 {fill:#a67af4;stroke:none;stroke-linecap:butt;stroke-width:34}
		.st4 {fill:none;fill-rule:evenodd;font-size:12px;overflow:visible;stroke-linecap:square;stroke-miterlimit:3}
	]]>
	</style>

	<defs id="Patterns_And_Gradients">
		<linearGradient id="grad0-8" x1="0" y1="0" x2="1" y2="0" gradientTransform="rotate(90 0.5 0.5)">
			<stop offset="0" stop-color="#5ea0ef" stop-opacity="1"/>
			<stop offset="1" stop-color="#0078d4" stop-opacity="1"/>
		</linearGradient>
	</defs>
	<g>
		<title>Page-1</title>
		<g id="group6449-1" transform="translate(35.2193,-35.2226)">
			<title>Cognitive Services Bot Channel</title>
			<g id="group6450-2">
				<title>Sheet.6450</title>
				<g id="shape6451-3" transform="translate(2.91474,-1.90653)">
					<title>Sheet.6451</title>
					<path d="M13.72 87.54 L6.03 76.06 L8.28 74.54 L15.97 86.02 L13.72 87.54 ZM16.22 115 L14.03 113.39 L6.05 124.3
								 L8.25 125.91 L16.22 115 ZM8.67 98.84 L0.06 98.64 L0 101.38 L8.61 101.58 L8.67 98.84 ZM44.49 76.09
								 L42.28 74.51 L34.1 85.99 L36.3 87.57 L44.49 76.09 ZM44.49 124.3 L36.3 113.1 L34.11 114.71 L42.3
								 125.92 L44.49 124.3 ZM50.54 101.38 L50.48 98.65 L41.77 98.85 L41.84 101.58 L50.54 101.38 Z"
							class="st1"/>
				</g>
				<g id="shape6452-5" transform="translate(12.4987,-12.3167)">
					<title>Sheet.6452</title>
					<path d="M29.62 99.88 A17.7909 17.8395 -180 0 0 4.73 96.4 L4.55 96.54 A17.7695 17.818 -180 1 0 26.33 124.7 A17.8392
								 17.8879 -180 0 0 29.62 99.88 ZM0 109.47 A15.5228 15.5652 0 0 1 1.72 103.43 L6.02 103.43 A28.8548
								 28.9336 -180 0 0 5.2 109.47 L0 109.47 ZM8.41 103.43 L14.3 103.43 L14.3 109.47 L7.48 109.47 A26.3808
								 26.4528 0 0 1 8.41 103.43 ZM16.58 103.43 L22.47 103.43 A26.3808 26.4528 0 0 1 23.4 109.47 L16.58
								 109.47 L16.58 103.43 ZM14.3 111.76 L14.3 117.81 L8.41 117.81 A26.4065 26.4786 0 0 1 7.48 111.76
								 L14.3 111.76 ZM16.58 111.76 L23.4 111.76 A26.4065 26.4786 0 0 1 22.48 117.81 L16.58 117.81 L16.58
								 111.76 ZM25.69 111.76 L30.86 111.76 A15.6193 15.662 0 0 1 29.16 117.81 L24.86 117.81 A29.1315 29.211
								 -180 0 0 25.68 111.76 L25.69 111.76 ZM25.69 109.47 A29.0703 29.1497 -180 0 0 24.86 103.43 L29.17
								 103.43 A15.3748 15.4168 0 0 1 30.87 109.47 L25.69 109.47 ZM27.7 101.14 L24.16 101.14 A17.3084 17.3556
								 -180 0 0 21.66 96.4 A15.362 15.4039 0 0 1 27.7 101.14 ZM21.7 101.14 L16.58 101.14 L16.58 95.33 A9.24936
								 9.27462 0 0 1 21.7 101.14 ZM14.3 95.33 L14.3 101.14 L9.19 101.14 A9.25257 9.27785 0 0 1 14.3 95.33
								 ZM5.94 98.35 L6.1 98.24 A15.555 15.5975 0 0 1 9.23 96.4 A17.2923 17.3395 -180 0 0 6.72 101.14 L3.18
								 101.14 A15.5132 15.5556 0 0 1 5.94 98.34 L5.94 98.35 ZM0 111.76 L5.2 111.76 A28.9159 28.9949 -180
								 0 0 6.02 117.81 L1.71 117.81 A15.4424 15.4846 0 0 1 0 111.76 ZM3.22 120.15 L3.19 120.11 L6.73 120.11
								 A17.4017 17.4492 -180 0 0 9.24 124.85 A15.3813 15.4233 0 0 1 3.2 120.13 L3.22 120.15 ZM9.2 120.11
								 L14.3 120.11 L14.3 125.92 A9.27188 9.2972 0 0 1 9.19 120.09 L9.2 120.11 ZM16.6 125.92 L16.6 120.11
								 L21.7 120.11 A9.26544 9.29075 0 0 1 16.58 125.91 L16.6 125.92 ZM24.97 122.89 A15.4424 15.4846 0
								 0 1 21.68 124.85 A17.318 17.3653 -180 0 0 24.19 120.1 L27.73 120.1 A15.3555 15.3975 0 0 1 24.92
								 122.89 L24.97 122.89 Z" class="st2"/>
				</g>
				<g id="shape6453-9">
					<title>Sheet.6453</title>
					<path d="M56.69 98.3 A4.16301 4.17439 0 1 1 52.54 94.12 A4.16301 4.17439 0 0 1 56.69 98.3 ZM2.94 94.12 A4.16301
								 4.17439 -180 1 0 7.11 98.3 A4.16301 4.17439 -180 0 0 2.94 94.12 ZM10.07 118.79 A4.16301 4.17439
								 -180 1 0 14.23 122.96 A4.16301 4.17439 -180 0 0 10.07 118.79 ZM45.69 118.79 A4.16301 4.17439 -180
								 1 0 49.85 122.96 A4.16301 4.17439 -180 0 0 45.68 118.79 L45.69 118.79 ZM10.07 69.22 A4.16301 4.17439
								 -180 1 0 14.23 73.39 A4.1598 4.17116 -180 0 0 10.07 69.22 ZM45.99 69.22 A4.16301 4.17439 -180 1
								 0 50.16 73.39 A4.16301 4.17439 -180 0 0 45.99 69.22 L45.99 69.22 Z" class="st3"/>
				</g>
			</g>
		</g>
	</g>
</svg>
